X:94
T:Galtee Rangers (reel), The 
B:CRE2.201 (Fiannoglaigh na nGeailti)
F:file ID: cre.2/094galt_r
L:1/8
M:C
R:reel
Q:180
K:D
dB|AFFE F2DE|F2FE FAdB|AFFE F2ED|FABA FEED|
AFFE F2DE|F2FE FAdB|AFEG F2ED|FAEG FDD2||
FAAB AGFG|ABde fee2|fedc BcdB|ABde fdd2|
A3B AGFG|ABde fee2|fedc BcdB|ABde fe "_DC"||

%%%

